frontend/public/svg/emojis/worried-emoji.svg

<svg width="160" height="155" viewBox="0 0 160 155" fill="none" xmlns="http://www.w3.org/2000/svg">
<path d="M83.8126 86.0137C92.2844 86.0882 98.7905 87.6701 104.638 91.3632C106.256 92.3461 107.575 93.7506 108.455 95.4261C108.698 96.1302 108.773 96.8815 108.674 97.6199C108.575 98.3583 108.304 99.0632 107.883 99.678C107.071 100.621 105.119 101.025 103.735 100.901C102.296 100.65 100.962 99.9847 99.8962 98.9859C88.6833 89.3244 68.3412 93.7772 60.581 102.434C59.6811 103.438 58.8564 104.63 57.7337 105.278C56.8222 105.803 55.1422 106.139 54.4834 105.648C53.7886 105.128 53.5225 103.443 53.7568 102.426C54.1738 101.143 54.8552 99.9619 55.7571 98.9588C60.533 92.8428 66.9368 89.2755 74.3854 87.5779C77.9899 86.7538 81.6905 86.3563 83.8126 86.0137Z" fill="black"/>
<path d="M47.5908 58.2919C47.2551 58.3108 46.9186 58.3088 46.5832 58.2857C44.7847 58.0569 42.7045 57.9248 42.5752 55.5772C42.4397 53.1672 44.507 53.0779 46.2812 52.5897C49.269 51.7546 52.2106 50.762 55.0936 49.6162C56.9815 48.8714 58.8179 47.5524 60.5412 49.6258C61.8027 51.142 61.0152 53.8959 58.3919 55.1845C55.0516 56.8253 51.3727 57.7766 47.8393 59.0252C47.7585 58.781 47.6757 58.5365 47.5908 58.2919Z" fill="black"/>
<path d="M114.873 66.3938C113.456 68.493 112.558 70.5684 111.017 71.9017C109.407 73.2953 106.832 72.3642 105.437 70.4722C103.633 68.0237 103.737 63.8978 105.659 61.6835C107.211 59.8959 109.882 59.065 111.314 60.4972C112.772 61.9544 113.541 64.0976 114.873 66.3938Z" fill="black"/>
<path d="M59.9406 66.2067C59.5594 67.6192 59.5228 69.136 58.7806 70.122C57.9999 71.1593 56.5515 72.2645 55.3814 72.28C54.6905 72.2059 54.0235 71.9844 53.4255 71.6305C52.8275 71.2765 52.3124 70.7983 51.915 70.2283C50.2791 67.7133 50.5242 64.78 51.5873 62.1154C52.6504 59.4508 57.0993 59.2551 58.524 61.7768C59.2689 63.1 59.4849 64.7183 59.9406 66.2067Z" fill="black"/>
<path d="M109.841 57.8608C107.654 56.7821 104.992 55.7216 102.659 54.1662C101.93 53.68 102.089 51.86 101.842 50.6499C103.054 50.5355 104.579 49.9016 105.416 50.4067C106.457 51.0657 107.627 51.4953 108.847 51.6664C110.067 51.8376 111.31 51.7466 112.492 51.3994C113.246 51.2038 114.136 50.8929 114.795 51.1191C115.918 51.6075 116.994 52.2003 118.006 52.8898C117.352 53.9455 116.938 55.4421 115.99 55.9601C114.376 56.8431 112.423 57.1112 109.841 57.8608Z" fill="black"/>
<path d="M3.78273 55.9748C-3.2271 83.5259 2.91122 107.831 22.0399 128.223C22.5383 128.75 23.0455 129.277 23.5534 129.785C33.8284 140.06 46.6272 146.404 56.7688 150.819C61.1208 152.719 83.4552 155.028 89.498 154.128C125.409 148.765 149.041 128.511 157.272 94.625C158.843 87.9873 159.626 81.1873 159.604 74.3661C159.642 58.2974 152.876 39.6163 138.924 25.6251C137.487 24.4373 136.056 23.2069 134.672 22.0145C131.669 19.4339 128.567 16.762 125.32 14.4834C100.523 -2.97008 74.7579 -3.06774 48.7439 6.1875C25.1907 14.5618 10.0653 31.3158 3.78273 55.9748ZM48.8442 14.4373C71.6694 4.95246 94.5712 3.27855 116.908 17.4844C120.992 20.0847 131.881 28.8849 133.595 30.2067L133.705 30.2879L133.796 30.3889C142.51 39.6299 152.488 56.5268 152.268 73.8963C152.196 81.3232 151.19 88.7115 149.276 95.8878C143.602 116.511 130.037 131.541 107.805 141.821C85.2056 152.642 52.7946 141.702 44.1712 136.01C34.6395 129.493 26.2995 121.386 19.5156 112.043C8.87623 96.9802 6.4893 75.3276 12.2024 55.5339C14.8785 46.3944 19.5549 37.9651 25.8925 30.8569C32.2302 23.7487 40.0702 18.1399 48.8442 14.4373Z" fill="black"/>
</svg>

<svg xmlns="http://www.w3.org/2000/svg" width="160" height="155" fill="none" viewBox="0 0 160 155"><path fill="#000" d="M83.813 86.014c8.471.074 14.977 1.656 20.825 5.35a10.4 10.4 0 0 1 3.817 4.062 4.78 4.78 0 0 1-.572 4.252c-.812.943-2.764 1.347-4.148 1.223a7.5 7.5 0 0 1-3.839-1.915c-11.213-9.662-31.555-5.209-39.315 3.448-.9 1.004-1.725 2.196-2.847 2.844-.912.525-2.592.861-3.25.37-.695-.52-.962-2.205-.727-3.222a9.6 9.6 0 0 1 2-3.467c4.776-6.116 11.18-9.684 18.628-11.381 3.605-.824 7.305-1.222 9.428-1.564M47.59 58.292a8 8 0 0 1-1.007-.006c-1.798-.23-3.878-.361-4.008-2.709-.135-2.41 1.932-2.5 3.706-2.987a88 88 0 0 0 8.813-2.974c1.887-.745 3.724-2.064 5.447.01 1.262 1.516.474 4.27-2.15 5.559-3.34 1.64-7.018 2.592-10.552 3.84a53 53 0 0 0-.248-.733m67.282 8.102c-1.417 2.099-2.315 4.174-3.856 5.508-1.61 1.393-4.185.462-5.58-1.43-1.804-2.448-1.7-6.574.222-8.788 1.552-1.788 4.223-2.619 5.655-1.187 1.458 1.457 2.227 3.6 3.559 5.897m-54.933-.187c-.38 1.412-.417 2.929-1.16 3.915-.78 1.037-2.229 2.142-3.399 2.158a4.86 4.86 0 0 1-3.466-2.052c-1.636-2.515-1.39-5.448-.328-8.113 1.063-2.664 5.512-2.86 6.937-.338.745 1.323.96 2.941 1.417 4.43m49.9-8.347c-2.187-1.078-4.849-2.138-7.182-3.694-.729-.486-.57-2.306-.817-3.516 1.212-.114 2.737-.748 3.574-.243a8.67 8.67 0 0 0 7.076.992c.754-.195 1.644-.506 2.303-.28a19.6 19.6 0 0 1 3.211 1.77c-.654 1.056-1.068 2.553-2.016 3.071-1.614.883-3.567 1.151-6.149 1.9"/><path fill="#000" d="M3.783 55.975c-7.01 27.55-.872 51.856 18.257 72.248a79 79 0 0 0 1.513 1.562c10.275 10.275 23.074 16.619 33.216 21.034 4.352 1.9 26.686 4.209 32.729 3.309 35.911-5.363 59.543-25.617 67.774-59.503a86.8 86.8 0 0 0 2.332-20.259c.038-16.069-6.728-34.75-20.68-48.74a274 274 0 0 1-4.252-3.611c-3.003-2.581-6.105-5.253-9.352-7.532C100.523-2.97 74.758-3.067 48.744 6.188 25.19 14.562 10.065 31.316 3.783 55.975m45.061-41.538C71.67 4.952 94.571 3.28 116.908 17.484c4.084 2.6 14.973 11.4 16.687 12.723l.11.08.091.102c8.714 9.24 18.692 26.138 18.472 43.507a88.7 88.7 0 0 1-2.992 21.992c-5.674 20.623-19.239 35.653-41.471 45.933-22.6 10.821-55.01-.119-63.634-5.811a100.7 100.7 0 0 1-24.655-23.967C8.876 96.98 6.489 75.328 12.202 55.533a64.18 64.18 0 0 1 36.642-41.096"/></svg>
